packages/icons/svg/24/ChromaticAberration.svg

<svg width="24" height="24" viewBox="0 0 24 24" fill="none" xmlns="http://www.w3.org/2000/svg">
<path fill-rule="evenodd" clip-rule="evenodd" d="M12 20.1318C11.0445 20.684 9.93537 21 8.75244 21C5.16259 21 2.25244 18.0899 2.25244 14.5C2.25244 12.0951 3.55849 9.99522 5.5 8.871C5.50216 5.28299 8.41148 2.375 12 2.375C15.5885 2.375 18.4978 5.28299 18.5 8.871C20.4415 9.99522 21.7476 12.0951 21.7476 14.5C21.7476 18.0899 18.8374 21 15.2476 21C14.0646 21 12.9555 20.684 12 20.1318ZM14.8819 12.3313C15.5608 11.7645 16.0703 11.0015 16.3229 10.1293C15.9783 10.0448 15.6182 10 15.2476 10C14.7011 10 14.1774 10.0974 13.6929 10.2758C14.2067 10.8761 14.6129 11.5713 14.8819 12.3313ZM13.0753 13.2457C12.8704 12.5381 12.4964 11.9024 12 11.385C11.5036 11.9024 11.1296 12.5381 10.9247 13.2457C11.2692 13.3302 11.6294 13.375 12 13.375C12.3706 13.375 12.7308 13.3302 13.0753 13.2457ZM13.1874 15.2668C13.0323 16.1701 12.608 16.9813 12 17.615C11.392 16.9813 10.9677 16.1701 10.8126 15.2668C11.1976 15.3379 11.5945 15.375 12 15.375C12.4055 15.375 12.8024 15.3379 13.1874 15.2668ZM13.6929 18.7242C14.6644 17.589 15.2515 16.1151 15.2524 14.504C16.58 13.7353 17.6105 12.5104 18.1294 11.0437C19.1183 11.8692 19.7476 13.1111 19.7476 14.5C19.7476 16.9853 17.7328 19 15.2476 19C14.7011 19 14.1774 18.9026 13.6929 18.7242ZM10.3071 18.7242C9.8226 18.9026 9.2989 19 8.75244 19C6.26716 19 4.25244 16.9853 4.25244 14.5C4.25244 13.1111 4.88166 11.8692 5.87059 11.0437C6.38954 12.5104 7.41999 13.7353 8.74756 14.504C8.74853 16.1151 9.33562 17.589 10.3071 18.7242ZM7.67712 10.1293C7.92974 11.0015 8.43916 11.7645 9.11815 12.3313C9.38707 11.5713 9.79334 10.8761 10.3071 10.2758C9.8226 10.0974 9.2989 10 8.75244 10C8.38183 10 8.02168 10.0448 7.67712 10.1293ZM7.56507 8.1082C7.95004 8.03714 8.34691 8 8.75244 8C9.93537 8 11.0445 8.31599 12 8.86817C12.9555 8.31599 14.0646 8 15.2476 8C15.6531 8 16.05 8.03714 16.4349 8.1082C16.071 5.98819 14.2239 4.375 12 4.375C9.77612 4.375 7.92903 5.98819 7.56507 8.1082Z" fill="#858585"/>
</svg>

<svg width="24" height="24" fill="none" xmlns="http://www.w3.org/2000/svg" viewBox="0 0 24 24"><path fill-rule="evenodd" clip-rule="evenodd" d="M12 20.132a6.5 6.5 0 01-6.5-11.26 6.5 6.5 0 0113-.001 6.5 6.5 0 01-6.5 11.26zm2.882-7.8a4.504 4.504 0 001.44-2.203 4.51 4.51 0 00-2.63.147c.515.6.92 1.295 1.19 2.055zm-1.807.914A4.494 4.494 0 0012 11.385a4.494 4.494 0 00-1.075 1.86 4.51 4.51 0 002.15 0zm.112 2.02A4.487 4.487 0 0112 17.616a4.487 4.487 0 01-1.187-2.348 6.534 6.534 0 002.374 0zm.506 3.458a6.474 6.474 0 001.56-4.22 6.52 6.52 0 002.876-3.46 4.5 4.5 0 01-4.437 7.68zm-3.386 0a4.5 4.5 0 01-4.437-7.68 6.52 6.52 0 002.878 3.46 6.475 6.475 0 001.56 4.22zm-2.63-8.595a4.504 4.504 0 001.441 2.202 6.494 6.494 0 011.19-2.055 4.51 4.51 0 00-2.63-.146zm-.112-2.02a6.537 6.537 0 014.435.76 6.536 6.536 0 014.435-.76 4.501 4.501 0 00-8.87 0z" fill="currentColor"></path></svg>
